packages/orbit-components/src/icons/svg/information-circle.svg

<!--character:180:550:1863-->
<svg width="24" height="24" viewBox="0 0 24 24" xmlns="http://www.w3.org/2000/svg"><path d="M14.1667 17h-3.3334c-.5 0-.8333-.3146-.8333-.7865 0-.472.3333-.7865.8333-.7865H11.5c.0833 0 .1667-.0787.1667-.1573v-3.5394c0-.0786-.0834-.1573-.1667-.1573h-.6667c-.5 0-.8333-.3146-.8333-.7865S10.3333 10 10.8333 10h.8334c.9166 0 1.6666.7079 1.6666 1.573v3.7753c0 .0787.0834.1573.1667.1573h.6667c.5 0 .8333.3146.8333.7865 0 .472-.3333.7079-.8333.7079zM12.3 6c.6933 0 1.3.6067 1.3 1.3s-.52 1.3-1.3 1.3S11 7.9933 11 7.3 11.6067 6 12.3 6zM12 2C6.5 2 2 6.5 2 12s4.5 10 10 10 10-4.5 10-10S17.5 2 12 2"/></svg>

<!--character:150:550:1863-->
  <svg width="24" height="24" viewBox="0 0 24 24" >
<path d="M13.6 7.3C13.6 7.99333 13.08 8.6 12.3 8.6C11.52 8.6 11 7.99333 11 7.3C11 6.60667 11.6067 6 12.3 6C12.9933 6 13.6 6.60667 13.6 7.3ZM10.8333 17C10.3333 17 10 16.6854 10 16.2135C10 15.7416 10.3333 15.427 10.8333 15.427H11.5C11.5833 15.427 11.6667 15.3483 11.6667 15.2697V11.7303C11.6667 11.6517 11.5833 11.573 11.5 11.573H10.8333C10.3333 11.573 10 11.2584 10 10.7865C10 10.3146 10.3333 10 10.8333 10H11.6667C12.5833 10 13.3333 10.7079 13.3333 11.573V15.3483C13.3333 15.427 13.4167 15.5056 13.5 15.5056H14.1667C14.6667 15.5056 15 15.8202 15 16.2921C15 16.764 14.6667 17 14.1667 17H10.8333ZM12 2C6.5 2 2 6.5 2 12C2 17.5 6.5 22 12 22C17.5 22 22 17.5 22 12C22 6.5 17.5 2 12 2Z" />
</svg>
